_includes/icons/ios-rar.svg

<svg fill="#666" height="50" viewBox="0 0 50 50" width="50" xmlns="http://www.w3.org/2000/svg"><path d="m7 2v46h36v-32.589844l-13.816406-13.410156zm2 2h19v13h13v29h-32zm21 1.578125 9.707031 9.421875h-9.707031zm-13.730469 17.421875c-.78125 0-1.613281.058594-2.269531.191406v9.808594h2v-4.136719h.304688c.957031 0 1.402343.414063 1.632812 1.714844.191406 1.164063.457031 2.140625.597656 2.421875h1.96875c-.191406-.34375-.476562-1.402344-.722656-2.613281-.25-1.183594-.675781-1.847656-1.527344-2.101563v-.023437c1.203125-.460938 1.878907-1.363281 1.878907-2.511719 0-.828125-.230469-1.492187-.902344-2.027344-.691406-.546875-1.71875-.722656-2.960938-.722656zm16 0c-.78125 0-1.613281.058594-2.269531.191406v9.808594h2v-4.136719h.304688c.957031 0 1.398437.414063 1.628906 1.714844.195312 1.164063.460937 2.140625.601562 2.421875h1.96875c-.191406-.34375-.476562-1.402344-.722656-2.613281-.25-1.183594-.675781-1.847656-1.527344-2.101563v-.023437c1.207032-.460938 1.878907-1.363281 1.878907-2.511719 0-.828125-.230469-1.492187-.902344-2.027344-.691406-.546875-1.71875-.722656-2.960938-.722656zm-7.949218.046875-2.660157 9.953125h1.84375l.636719-2.585937h2.375l.640625 2.585937h1.84375l-2.464844-9.953125zm-7.804688 1.195313c1.226563.015625 1.484375.679687 1.484375 1.652343 0 1.019532-.488281 1.757813-1.625 1.757813h-.375v-3.351563c.160156-.042968.269531-.058593.515625-.058593zm16 0c1.222656.015625 1.703125.679687 1.703125 1.652343 0 1.019532-.707031 1.757813-1.84375 1.757813h-.375v-3.351563c.15625-.042968.269531-.058593.515625-.058593zm-7.1875.757812h.058594c.121094.695313.9375 4 .9375 4h-1.96875s.851562-3.304687.972656-4z"/></svg>

<svg xmlns="http://www.w3.org/2000/svg" viewBox="0 0 50 50" width="50" height="50" fill="#666"><path d="M 7 2 L 7 48 L 43 48 L 43 15.410156 L 29.183594 2 Z M 9 4 L 28 4 L 28 17 L 41 17 L 41 46 L 9 46 Z M 30 5.578125 L 39.707031 15 L 30 15 Z M 16.269531 23 C 15.488281 23 14.65625 23.058594 14 23.191406 L 14 33 L 16 33 L 16 28.863281 L 16.304688 28.863281 C 17.261719 28.863281 17.707031 29.277344 17.9375 30.578125 C 18.128906 31.742188 18.394531 32.71875 18.535156 33 L 20.503906 33 C 20.3125 32.65625 20.027344 31.597656 19.78125 30.386719 C 19.53125 29.203125 19.105469 28.539063 18.253906 28.285156 L 18.253906 28.261719 C 19.457031 27.800781 20.132813 26.898438 20.132813 25.75 C 20.132813 24.921875 19.902344 24.257813 19.230469 23.722656 C 18.539063 23.175781 17.511719 23 16.269531 23 Z M 32.269531 23 C 31.488281 23 30.65625 23.058594 30 23.191406 L 30 33 L 32 33 L 32 28.863281 L 32.304688 28.863281 C 33.261719 28.863281 33.703125 29.277344 33.933594 30.578125 C 34.128906 31.742188 34.394531 32.71875 34.535156 33 L 36.503906 33 C 36.3125 32.65625 36.027344 31.597656 35.78125 30.386719 C 35.53125 29.203125 35.105469 28.539063 34.253906 28.285156 L 34.253906 28.261719 C 35.460938 27.800781 36.132813 26.898438 36.132813 25.75 C 36.132813 24.921875 35.902344 24.257813 35.230469 23.722656 C 34.539063 23.175781 33.511719 23 32.269531 23 Z M 24.320313 23.046875 L 21.660156 33 L 23.503906 33 L 24.140625 30.414063 L 26.515625 30.414063 L 27.15625 33 L 29 33 L 26.535156 23.046875 Z M 16.515625 24.242188 C 17.742188 24.257813 18 24.921875 18 25.894531 C 18 26.914063 17.511719 27.652344 16.375 27.652344 L 16 27.652344 L 16 24.300781 C 16.160156 24.257813 16.269531 24.242188 16.515625 24.242188 Z M 32.515625 24.242188 C 33.738281 24.257813 34.21875 24.921875 34.21875 25.894531 C 34.21875 26.914063 33.511719 27.652344 32.375 27.652344 L 32 27.652344 L 32 24.300781 C 32.15625 24.257813 32.269531 24.242188 32.515625 24.242188 Z M 25.328125 25 L 25.386719 25 C 25.507813 25.695313 26.324219 29 26.324219 29 L 24.355469 29 C 24.355469 29 25.207031 25.695313 25.328125 25 Z"/></svg>
